X:1
T: Centennial Hornpipe
C:
R:Reel
Q: 232
K:Bb
M:4/4
L:1/8
|:dc|BF dc BF dc|BF ed c2 fe|df Bd ce Ac|Bb ag fe dc|
BF dc BF dc|BF ed c2 fe|df Bd ce Ac|B2 d2 B2:|
|:AB|cf =eg f2 AB|cf =eg f2 AB|c=e gb ag fe|f=e fg f_e dc|
cf =eg f2 AB|cf =eg f2 AB|c=e gb ag fe|f=e fg f2:|
